src/images/technologies/jira.svg

<svg width="168" height="168" viewBox="0 0 168 168" fill="none" xmlns="http://www.w3.org/2000/svg">
<path d="M121.381 81.79L86.906 47.3149L83.591 44L57.7348 69.8563L45.9116 81.6797C44.6961 82.895 44.6961 84.884 45.9116 86.21L69.558 109.856L83.591 124L109.447 98.1437L109.889 97.7017L121.381 86.21C122.597 84.9943 122.597 83.0057 121.381 81.79ZM83.591 95.8233L71.768 84L83.591 72.1767L95.4143 84L83.591 95.8233Z" fill="#2684FF"/>
<path d="M83.5913 72.1771C75.8567 64.4424 75.8567 51.8456 83.481 44.1107L57.6245 69.9671L71.6577 84.0004L83.5913 72.1771Z" fill="url(#paint0_linear_2051_2308)"/>
<path d="M95.4146 84L83.5913 95.8233C91.326 103.558 91.326 116.155 83.5913 124L109.558 98.033L95.4146 84Z" fill="url(#paint1_linear_2051_2308)"/>
<defs>
<linearGradient id="paint0_linear_2051_2308" x1="81.4823" y1="60.1985" x2="64.9704" y2="76.7104" gradientUnits="userSpaceOnUse">
<stop offset="0.176" stop-color="#0052CC"/>
<stop offset="1" stop-color="#2684FF"/>
</linearGradient>
<linearGradient id="paint1_linear_2051_2308" x1="85.8526" y1="107.631" x2="102.332" y2="91.152" gradientUnits="userSpaceOnUse">
<stop offset="0.176" stop-color="#0052CC"/>
<stop offset="1" stop-color="#2684FF"/>
</linearGradient>
</defs>
</svg>

<svg xmlns="http://www.w3.org/2000/svg" width="168" height="168" fill="none"><path fill="#2684FF" d="M121.381 81.79 86.906 47.315 83.591 44 57.735 69.856 45.912 81.68c-1.216 1.215-1.216 3.204 0 4.53l23.646 23.646L83.591 124l25.856-25.856.442-.442 11.492-11.492a3.134 3.134 0 0 0 0-4.42Zm-37.79 14.033L71.768 84l11.823-11.823L95.414 84 83.591 95.823Z"/><path fill="url(#a)" d="M83.591 72.177c-7.734-7.735-7.734-20.331-.11-28.066L57.625 69.967 71.657 84 83.59 72.177Z"/><path fill="url(#b)" d="M95.415 84 83.59 95.823c7.735 7.735 7.735 20.332 0 28.177l25.967-25.967L95.415 84Z"/><defs><linearGradient id="a" x1="81.482" x2="64.97" y1="60.199" y2="76.71" gradientUnits="userSpaceOnUse"><stop offset=".176" stop-color="#0052CC"/><stop offset="1" stop-color="#2684FF"/></linearGradient><linearGradient id="b" x1="85.853" x2="102.332" y1="107.631" y2="91.152" gradientUnits="userSpaceOnUse"><stop offset=".176" stop-color="#0052CC"/><stop offset="1" stop-color="#2684FF"/></linearGradient></defs></svg>
